map_marker_monochrome/openmoji_hot_beverage.svg

<svg xmlns="http://www.w3.org/2000/svg" width="24" height="24" viewBox="0 0 24 24"> <g transform="translate(0.0 1.325248738980683) scale(0.4751839159748121)">
  
  <g
     id="line-supplement"
     transform="translate(-11.493241,-11.071075)">
    <path
       fill="#000"
       d="m 39.06,20.6179 -0.7049,-0.7093 -0.0022,0.0022 z m 0.0114,-7.0824 -0.7071,0.7071 z m -7.7782,-0.7071 c -0.3905,0.3905 -0.3905,1.0237 0,1.4142 0.3906,0.3905 1.0237,0.3905 1.4143,0 z m 4.9498,0.7071 -0.7071,0.7071 v 0 z m 0,4.2427 -0.7071,-0.7072 v 0 z m -3.4534,3.4534 0.7048,0.7093 0.0023,-0.0022 z m -0.0114,0.0113 0.7071,0.7071 v 0 z m 0,7.0711 -0.7071,0.7071 z m 7.7782,0.7071 c 0.3905,-0.3905 0.3905,-1.0237 0,-1.4142 -0.3906,-0.3905 -1.0237,-0.3905 -1.4143,0 z m -4.9498,-0.7071 0.7071,-0.7071 v 0 z m 0,-4.2426 0.7071,0.7071 z m 4.1584,-2.7442 c 0.0044,-0.0044 0.009,-0.009 0.0135,-0.0135 l -1.4142,-1.4142 c -0.003,0.003 -0.0061,0.006 -0.0092,0.0091 z m 0.0135,-0.0135 c 2.3432,-2.3432 2.3432,-6.1422 0,-8.4853 l -1.4142,1.4142 c 1.5621,1.5621 1.5621,4.0948 0,5.6569 z m 0,-8.4853 c -2.3431,-2.3431 -6.1421,-2.3431 -8.4853,0 l 1.4143,1.4142 c 1.5621,-1.5621 4.0947,-1.5621 5.6568,0 z m -7.071,1.4142 c 0.781,-0.781 2.0473,-0.781 2.8284,0 l 1.4142,-1.4142 c -1.5621,-1.5621 -4.0948,-1.5621 -5.6569,0 z m 2.8284,0 c 0.781,0.7811 0.781,2.0474 0,2.8284 l 1.4142,1.4143 c 1.5621,-1.5621 1.5621,-4.0948 0,-5.6569 z m 0,2.8284 -3.4534,3.4535 1.4142,1.4142 3.4534,-3.4534 z m -3.4512,3.4512 c -0.0045,0.0045 -0.0091,0.0091 -0.0136,0.0136 l 1.4142,1.4142 c 0.003,-0.003 0.0061,-0.006 0.0091,-0.0091 z m -0.0136,0.0136 c -2.3432,2.3432 -2.3432,6.1422 0,8.4853 l 1.4142,-1.4142 c -1.5621,-1.5621 -1.5621,-4.0948 0,-5.6569 z m 0,8.4853 c 2.3431,2.3431 6.1421,2.3431 8.4853,0 l -1.4143,-1.4142 c -1.5621,1.5621 -4.0947,1.5621 -5.6568,0 z m 7.071,-1.4142 c -0.781,0.781 -2.0473,0.781 -2.8284,0 l -1.4142,1.4142 c 1.5621,1.5621 4.0948,1.5621 5.6569,0 z m -2.8284,0 c -0.781,-0.7811 -0.781,-2.0474 0,-2.8284 l -1.4142,-1.4143 c -1.5621,1.5621 -1.5621,4.0948 0,5.6569 z m 0,-2.8284 3.4534,-3.4535 -1.4142,-1.4142 -3.4534,3.4534 z"
       id="path2" />
  </g>
  <g
     id="line"
     transform="translate(-11.493241,-11.071075)">
    <path
       fill="none"
       stroke="#000"
       stroke-linecap="round"
       stroke-linejoin="round"
       stroke-width="2"
       d="M 24,47.4166 C 20.3175,44.1207 18,39.331 18,34 h 36 c 0,5.331 -2.3175,10.1207 -6,13.4166"
       id="path5" />
    <path
       fill="#000"
       d="m 56.8615,54.6765 -0.7448,-0.6673 z m 2.4785,-3.2036 0.833,0.5533 z m -44.2016,3.2036 -0.7448,0.6672 z m 0.7448,-0.6673 c -0.8684,-0.9694 -1.6678,-2.0019 -2.3903,-3.0896 l -1.666,1.1066 c 0.776,1.1682 1.6343,2.2768 2.5667,3.3175 z M 13.4796,51 H 58.5203 V 49 H 13.4796 Z m 45.0275,-0.0804 c -0.7226,1.0877 -1.522,2.1202 -2.3904,3.0896 l 1.4896,1.3345 C 58.5387,54.303 59.397,53.1944 60.173,52.0262 Z M 56.1297,54 H 15.8703 v 2 h 40.2594 z m -0.013,0.0092 c 0.0042,-0.0047 0.0085,-0.0073 0.011,-0.0084 0.0023,-10e-4 0.003,-8e-4 0.002,-8e-4 v 2 c 0.5547,0 1.0953,-0.2307 1.4766,-0.6563 z M 58.5203,51 c 0.0058,0 0.0069,7e-4 0.0049,1e-4 -0.0019,-5e-4 -0.0046,-0.0016 -0.0074,-0.0032 -0.005,-0.0031 -0.0083,-0.0067 -0.0107,-0.011 -0.0025,-0.0045 -0.0072,-0.0155 -0.0069,-0.0334 2e-4,-0.009 0.0017,-0.0178 0.004,-0.0252 0.0024,-0.0075 0.0045,-0.0102 0.0029,-0.0077 l 1.6659,1.1066 C 61.0716,50.6735 60.032,49 58.5203,49 Z M 13.4929,50.9196 c -0.0017,-0.0025 4e-4,2e-4 0.0028,0.0077 0.0023,0.0074 0.0038,0.0162 0.004,0.0252 3e-4,0.0179 -0.0044,0.0289 -0.0069,0.0334 -0.0024,0.0043 -0.0057,0.0079 -0.0107,0.0109 -0.0028,0.0017 -0.0055,0.0028 -0.0074,0.0033 -0.002,6e-4 -9e-4,-1e-4 0.0049,-1e-4 v -2 c -1.5117,0 -2.5513,1.6735 -1.6527,3.0262 z m 0.9007,4.4241 C 14.7749,55.7693 15.3155,56 15.8703,56 v -2 c -0.0011,0 -4e-4,-2e-4 0.0019,8e-4 0.0025,0.0011 0.0068,0.0037 0.011,0.0084 z"
       id="path7" />
    <path
       fill="none"
       stroke="#000"
       stroke-linecap="round"
       stroke-width="2"
       d="m 51,45 h 4.5 C 58.5376,45 61,42.5376 61,39.5 61,36.4624 58.5376,34 55.5,34 H 53"
       id="path9" />
  </g>
</g></svg>

<svg xmlns="http://www.w3.org/2000/svg" width="24" height="24" viewBox="0 0 24 24"> <g transform="scale(0.333333333)">  <g id="line-supplement">
    <path fill="#000" d="M39.06 20.6179L38.3551 19.9086L38.3529 19.9108L39.06 20.6179ZM39.0714 13.5355L38.3643 14.2426L39.0714 13.5355ZM31.2932 12.8284C30.9027 13.2189 30.9027 13.8521 31.2932 14.2426C31.6838 14.6331 32.3169 14.6331 32.7075 14.2426L31.2932 12.8284ZM36.243 13.5355L35.5359 14.2426V14.2426L36.243 13.5355ZM36.243 17.7782L35.5359 17.071V17.071L36.243 17.7782ZM32.7896 21.2316L33.4944 21.9409L33.4967 21.9387L32.7896 21.2316ZM32.7782 21.2429L33.4853 21.95L33.4853 21.95L32.7782 21.2429ZM32.7782 28.314L32.0711 29.0211L32.7782 28.314ZM40.5564 29.0211C40.9469 28.6306 40.9469 27.9974 40.5564 27.6069C40.1658 27.2164 39.5327 27.2164 39.1421 27.6069L40.5564 29.0211ZM35.6066 28.314L36.3137 27.6069H36.3137L35.6066 28.314ZM35.6066 24.0714L36.3137 24.7785L35.6066 24.0714ZM39.765 21.3272C39.7694 21.3228 39.774 21.3182 39.7785 21.3137L38.3643 19.8995C38.3613 19.9025 38.3582 19.9055 38.3551 19.9086L39.765 21.3272ZM39.7785 21.3137C42.1217 18.9705 42.1217 15.1715 39.7785 12.8284L38.3643 14.2426C39.9264 15.8047 39.9264 18.3374 38.3643 19.8995L39.7785 21.3137ZM39.7785 12.8284C37.4354 10.4853 33.6364 10.4853 31.2932 12.8284L32.7075 14.2426C34.2696 12.6805 36.8022 12.6805 38.3643 14.2426L39.7785 12.8284ZM32.7075 14.2426C33.4885 13.4616 34.7548 13.4616 35.5359 14.2426L36.9501 12.8284C35.388 11.2663 32.8553 11.2663 31.2932 12.8284L32.7075 14.2426ZM35.5359 14.2426C36.3169 15.0237 36.3169 16.29 35.5359 17.071L36.9501 18.4853C38.5122 16.9232 38.5122 14.3905 36.9501 12.8284L35.5359 14.2426ZM35.5359 17.071L32.0825 20.5245L33.4967 21.9387L36.9501 18.4853L35.5359 17.071ZM32.0847 20.5222C32.0802 20.5267 32.0756 20.5313 32.0711 20.5358L33.4853 21.95C33.4883 21.947 33.4914 21.944 33.4944 21.9409L32.0847 20.5222ZM32.0711 20.5358C29.7279 22.879 29.7279 26.678 32.0711 29.0211L33.4853 27.6069C31.9232 26.0448 31.9232 23.5121 33.4853 21.95L32.0711 20.5358ZM32.0711 29.0211C34.4142 31.3642 38.2132 31.3642 40.5564 29.0211L39.1421 27.6069C37.58 29.169 35.0474 29.169 33.4853 27.6069L32.0711 29.0211ZM39.1421 27.6069C38.3611 28.3879 37.0948 28.3879 36.3137 27.6069L34.8995 29.0211C36.4616 30.5832 38.9943 30.5832 40.5564 29.0211L39.1421 27.6069ZM36.3137 27.6069C35.5327 26.8258 35.5327 25.5595 36.3137 24.7785L34.8995 23.3642C33.3374 24.9263 33.3374 27.459 34.8995 29.0211L36.3137 27.6069ZM36.3137 24.7785L39.7671 21.325L38.3529 19.9108L34.8995 23.3642L36.3137 24.7785Z"/>
  </g>
  <g id="line">
    <path fill="none" stroke="#000" stroke-linecap="round" stroke-linejoin="round" stroke-width="2" d="M24 47.4166C20.3175 44.1207 18 39.331 18 34H54C54 39.331 51.6825 44.1207 48 47.4166"/>
    <path fill="#000" d="M56.8615 54.6765L56.1167 54.0092L56.8615 54.6765ZM59.34 51.4729L60.173 52.0262L59.34 51.4729ZM15.1384 54.6765L14.3936 55.3437L15.1384 54.6765ZM15.8832 54.0092C15.0148 53.0398 14.2154 52.0073 13.4929 50.9196L11.8269 52.0262C12.6029 53.1944 13.4612 54.303 14.3936 55.3437L15.8832 54.0092ZM13.4796 51H58.5203V49H13.4796V51ZM58.5071 50.9196C57.7845 52.0073 56.9851 53.0398 56.1167 54.0092L57.6063 55.3437C58.5387 54.303 59.397 53.1944 60.173 52.0262L58.5071 50.9196ZM56.1297 54H15.8703V56H56.1297V54ZM56.1167 54.0092C56.1209 54.0045 56.1252 54.0019 56.1277 54.0008C56.13 53.9998 56.1307 54 56.1297 54V56C56.6844 56 57.225 55.7693 57.6063 55.3437L56.1167 54.0092ZM58.5203 51C58.5261 51 58.5272 51.0007 58.5252 51.0001C58.5233 50.9996 58.5206 50.9985 58.5178 50.9969C58.5128 50.9938 58.5095 50.9902 58.5071 50.9859C58.5046 50.9814 58.4999 50.9704 58.5002 50.9525C58.5004 50.9435 58.5019 50.9347 58.5042 50.9273C58.5066 50.9198 58.5087 50.9171 58.5071 50.9196L60.173 52.0262C61.0716 50.6735 60.032 49 58.5203 49V51ZM13.4929 50.9196C13.4912 50.9171 13.4933 50.9198 13.4957 50.9273C13.498 50.9347 13.4995 50.9435 13.4997 50.9525C13.5 50.9704 13.4953 50.9814 13.4928 50.9859C13.4904 50.9902 13.4871 50.9938 13.4821 50.9968C13.4793 50.9985 13.4766 50.9996 13.4747 51.0001C13.4727 51.0007 13.4738 51 13.4796 51V49C11.9679 49 10.9283 50.6735 11.8269 52.0262L13.4929 50.9196ZM14.3936 55.3437C14.7749 55.7693 15.3155 56 15.8703 56V54C15.8692 54 15.8699 53.9998 15.8722 54.0008C15.8747 54.0019 15.879 54.0045 15.8832 54.0092L14.3936 55.3437Z"/>
    <path fill="none" stroke="#000" stroke-linecap="round" stroke-width="2" d="M51 45H55.5C58.5376 45 61 42.5376 61 39.5C61 36.4624 58.5376 34 55.5 34H53"/>
  </g></g></svg>
